T: Sparrow's Tail, The
M: 12/8
L: 1/8
K: Amin
|cBA d2B c2B A2B|cBA d2c B3 BAB|cBA d2B c2B A2d|1cBA B2c A3 A2B:|2cBA B2c A3 A2e||
e2f e2d c2B A2B|cBc d2c B3 B2e|e2f e2d c2B A2d|cBA B2c A3 A2e|
e2f e2d c2B A2B|cBc d2c B3 BAB|c2A d2B c2B A2d|cBA B2c A3 A2e|
aAA gAA fAA e2d|cBA B2c B3 B2e|aAA gAA fAA e2d|cBA B2c A3 A2e|
aAA gAA fAA e2d|cBA B2c B3 B2e|e2f e2d c2B A2d|cBA B2c A3 A2B|
